icons/svg/seamark/buoy_red_spar.svg

<?xml version="1.0" encoding="UTF-8" standalone="no"?>
<svg
   xmlns:dc="http://purl.org/dc/elements/1.1/"
   xmlns:cc="http://creativecommons.org/ns#"
   xmlns:rdf="http://www.w3.org/1999/02/22-rdf-syntax-ns#"
   xmlns:svg="http://www.w3.org/2000/svg"
   xmlns="http://www.w3.org/2000/svg"
   xmlns:sodipodi="http://sodipodi.sourceforge.net/DTD/sodipodi-0.dtd"
   xmlns:inkscape="http://www.inkscape.org/namespaces/inkscape"
   width="580"
   height="580"
   id="svg2"
   version="1.1"
   inkscape:version="0.48.4 r9939"
   sodipodi:docname="buoy_red_spar.svg">
  <defs
     id="defs13">
    <inkscape:path-effect
       effect="gears"
       id="path-effect3774"
       is_visible="true"
       teeth="6"
       phi="-1.2" />
    <inkscape:path-effect
       effect="bend_path"
       id="path-effect3772"
       is_visible="false"
       bendpath="m 95.790098,316.51174 c 144.429032,-206.42506 223.313032,-11.7428 339.548092,0"
       prop_scale="1.19"
       scale_y_rel="false"
       vertical="false"
       bendpath-nodetypes="cc" />
  </defs>
  <sodipodi:namedview
     pagecolor="#ffffff"
     bordercolor="#666666"
     borderopacity="1"
     objecttolerance="10"
     gridtolerance="10"
     guidetolerance="10"
     inkscape:pageopacity="0"
     inkscape:pageshadow="2"
     inkscape:window-width="1920"
     inkscape:window-height="1004"
     id="namedview11"
     showgrid="false"
     inkscape:zoom="1.6275861"
     inkscape:cx="368.80208"
     inkscape:cy="158.41306"
     inkscape:window-x="1680"
     inkscape:window-y="0"
     inkscape:window-maximized="1"
     inkscape:current-layer="svg2"
     inkscape:snap-object-midpoints="true"
     inkscape:snap-bbox="true" />
  <metadata
     id="metadata2975">image/svg+xmlen<rdf:RDF>
  <cc:Work
     rdf:about="">
    <dc:format>image/svg+xml</dc:format>
    <dc:type
       rdf:resource="http://purl.org/dc/dcmitype/StillImage" />
    <dc:title />
  </cc:Work>
</rdf:RDF>
</metadata>
  <path
     style="opacity:0.42608696;color:#000000;fill:#8d8d8d;fill-opacity:1;fill-rule:nonzero;stroke:#a35151;stroke-width:0;stroke-linecap:round;stroke-linejoin:miter;stroke-miterlimit:4;stroke-opacity:1;stroke-dashoffset:0;marker:none;visibility:visible;display:inline;overflow:visible;enable-background:accumulate"
     d="m 299.3125,201.25 c -4.82207,-0.10445 -9.66407,1.49657 -13.4734,4.455 -3.80933,2.95842 -6.55912,7.2534 -7.6516,11.95125 l -20.40625,87.53125 c -0.56468,1.26544 -1.00498,2.58634 -1.3125,3.9375 l -17.21875,75.59375 -0.0312,0.0937 -22.78125,97.84375 -50.4109,0 c -3.65048,-4.8e-4 -7.2786,2.28619 -9.85989,6.21431 -2.58128,3.92812 -4.08391,9.44929 -4.0836,15.00449 l 0,25 c -3e-4,5.55518 1.50233,11.07633 4.0836,15.00444 2.58128,3.92811 6.20939,6.21477 9.85986,6.21431 l 62.12963,0 c 11.50138,18.6725 31.94588,31.21875 55.28125,31.21875 14.57842,0 28.19903,-4.96802 39.0625,-13.15625 l 0.0312,0.0312 c 0.0973,-0.0703 0.18446,-0.14788 0.28125,-0.21875 0.0709,-0.0541 0.14805,-0.10188 0.21875,-0.15625 L 323,567.78125 c 6.58074,-4.86515 11.90336,-10.97065 15.96875,-17.6875 l 55.66989,0 c 3.65047,4.6e-4 7.27858,-2.2862 9.85985,-6.21431 2.58127,-3.92811 4.08391,-9.44926 4.0836,-15.00444 l 0,-25 c 3.1e-4,-5.55518 -1.50233,-11.07633 -4.0836,-15.00444 -2.58127,-3.92811 -6.20938,-6.21477 -9.85985,-6.21431 l -31.20114,0 3.09375,-15.53125 44.09375,-220 c 1.31764,-6.69535 -0.84084,-13.9787 -5.59375,-18.875 -0.4855,-0.51471 -0.99677,-1.00511 -1.53125,-1.46875 -0.33526,-0.28138 -0.67923,-0.55239 -1.03125,-0.8125 -2.45798,-1.90505 -5.3399,-3.25998 -8.375,-3.9375 L 378.9375,218.75 l 0,0.0312 -75.4375,-17 c -1.37357,-0.31556 -2.77865,-0.4938 -4.1875,-0.5312 z"
     id="path3052"
     inkscape:connector-curvature="0"
     sodipodi:nodetypes="cscccccccsccsccscccccccsccscccccccccccc" />
  <path
     style="color:#000000;fill:#e80000;fill-opacity:1;fill-rule:nonzero;stroke:none;stroke-width:0;marker:none;visibility:visible;display:inline;overflow:visible;enable-background:accumulate"
     d="m 389.55749,243.16454 -90.95099,-20.49942 -68.11809,292.23565 10.80634,4.69978 c 3.23822,20.95032 11.76658,36.96237 42.40484,40.29298 27.04122,-2.11225 40.39227,-17.7997 44.13615,-41.57373 l 8.44126,-9.32694 z"
     id="path3822-3"
     inkscape:connector-curvature="0"
     sodipodi:nodetypes="cccccccc" />
  <path
     style="opacity:0.42608696;color:#000000;fill:#000000;fill-opacity:1;fill-rule:nonzero;stroke:#a35151;stroke-width:0;stroke-linecap:round;stroke-linejoin:miter;stroke-miterlimit:4;stroke-opacity:1;stroke-dashoffset:0;marker:none;visibility:visible;display:inline;overflow:visible;enable-background:accumulate"
     d="m 357.41414,236.06784 31.92905,6.90403 -52.13732,261.58584 -36.22937,1.39791 z"
     id="rect3050"
     inkscape:connector-curvature="0"
     sodipodi:nodetypes="ccccc" />
  <path
     style="fill:none;stroke:#000000;stroke-width:25;stroke-linecap:butt;stroke-linejoin:miter;stroke-miterlimit:4;stroke-opacity:1;stroke-dasharray:none"
     d="m 173.55821,516.57012 214.88358,0"
     id="path3759"
     inkscape:connector-curvature="0" />
  <path
     sodipodi:type="arc"
     style="color:#000000;fill:#fefefe;fill-opacity:1;stroke:#000000;stroke-width:25;stroke-linecap:round;stroke-linejoin:round;stroke-miterlimit:10;stroke-opacity:1;stroke-dasharray:none;stroke-dashoffset:0;marker:none;visibility:visible;display:inline;overflow:visible;enable-background:accumulate"
     id="path3759-1"
     sodipodi:cx="210.27438"
     sodipodi:cy="76.036606"
     sodipodi:rx="40.838413"
     sodipodi:ry="40.838413"
     d="m 251.1128,76.036606 a 40.838413,40.838413 0 1 1 -81.67683,0 40.838413,40.838413 0 1 1 81.67683,0 z"
     transform="matrix(0.82289092,0,0,0.82289092,110.16458,453.8318)" />
</svg>

<svg width="580" height="580" viewBox="0 0 580 580" fill="none" xmlns="http://www.w3.org/2000/svg">
<g clip-path="url(#clip0)">
<path opacity="0.426087" d="M299.312 201.25C294.49 201.145 289.648 202.746 285.839 205.705C282.03 208.663 279.28 212.958 278.187 217.656L257.781 305.187C257.217 306.453 256.776 307.774 256.469 309.125L239.25 384.719L239.219 384.812L216.438 482.656H166.027C162.376 482.656 158.748 484.942 156.167 488.87C153.585 492.799 152.083 498.32 152.083 503.875V528.875C152.083 534.43 153.585 539.951 156.167 543.879C158.748 547.808 162.376 550.094 166.027 550.094H228.156C239.658 568.766 260.102 581.312 283.437 581.312C298.016 581.312 311.636 576.344 322.5 568.156L322.531 568.187C322.628 568.117 322.716 568.039 322.812 567.969C322.883 567.915 322.96 567.867 323.031 567.812L323 567.781C329.581 562.916 334.903 556.811 338.969 550.094H394.639C398.289 550.094 401.917 547.808 404.498 543.879C407.08 539.951 408.582 534.43 408.582 528.875V503.875C408.582 498.32 407.08 492.799 404.498 488.871C401.917 484.942 398.289 482.656 394.639 482.656H363.437L366.531 467.125L410.625 247.125C411.943 240.43 409.784 233.146 405.031 228.25C404.546 227.735 404.034 227.245 403.5 226.781C403.165 226.5 402.821 226.229 402.469 225.969C400.011 224.064 397.129 222.709 394.094 222.031L378.937 218.75V218.781L303.5 201.781C302.126 201.466 300.721 201.287 299.312 201.25Z" fill="#8D8D8D"/>
<path d="M389.557 243.164L298.607 222.665L230.488 514.901L241.295 519.6C244.533 540.551 253.061 556.563 283.7 559.893C310.741 557.781 324.092 542.094 327.836 518.32L336.277 508.993L389.557 243.164Z" fill="#E80000"/>
<path opacity="0.426087" d="M357.414 236.068L389.343 242.972L337.206 504.558L300.977 505.956L357.414 236.068Z" fill="black"/>
<path d="M173.558 516.57H388.442" stroke="black" stroke-width="25"/>
<path d="M316.803 516.401C316.803 525.314 313.262 533.862 306.96 540.164C300.658 546.466 292.11 550.007 283.197 550.007C274.285 550.007 265.737 546.466 259.435 540.164C253.132 533.862 249.592 525.314 249.592 516.401C249.592 507.489 253.132 498.941 259.435 492.639C265.737 486.336 274.285 482.796 283.197 482.796C292.11 482.796 300.658 486.336 306.96 492.639C313.262 498.941 316.803 507.489 316.803 516.401V516.401Z" fill="#FEFEFE" stroke="black" stroke-width="20.5723" stroke-miterlimit="10" stroke-linecap="round" stroke-linejoin="round"/>
</g>
<defs>
<clipPath id="clip0">
<path d="M0 0H580V580H0V0Z" fill="white"/>
</clipPath>
</defs>
</svg>
